dist/svgs/unicons/line/print.svg

<svg xmlns="http://www.w3.org/2000/svg" viewBox="0 0 24 24"><path d="M7 10a1 1 0 101 1 1 1 0 00-1-1zm12-4h-1V3a1 1 0 00-1-1H7a1 1 0 00-1 1v3H5a3 3 0 00-3 3v6a3 3 0 003 3h1v3a1 1 0 001 1h10a1 1 0 001-1v-3h1a3 3 0 003-3V9a3 3 0 00-3-3zM8 4h8v2H8zm8 16H8v-4h8zm4-5a1 1 0 01-1 1h-1v-1a1 1 0 00-1-1H7a1 1 0 00-1 1v1H5a1 1 0 01-1-1V9a1 1 0 011-1h14a1 1 0 011 1z"/></svg>

<svg xmlns="http://www.w3.org/2000/svg" viewBox="0 0 24 24"><path d="M7,10a1,1,0,1,0,1,1A1,1,0,0,0,7,10ZM19,6H18V3a1,1,0,0,0-1-1H7A1,1,0,0,0,6,3V6H5A3,3,0,0,0,2,9v6a3,3,0,0,0,3,3H6v3a1,1,0,0,0,1,1H17a1,1,0,0,0,1-1V18h1a3,3,0,0,0,3-3V9A3,3,0,0,0,19,6ZM8,4h8V6H8Zm8,16H8V16h8Zm4-5a1,1,0,0,1-1,1H18V15a1,1,0,0,0-1-1H7a1,1,0,0,0-1,1v1H5a1,1,0,0,1-1-1V9A1,1,0,0,1,5,8H19a1,1,0,0,1,1,1Z"/></svg>
